icon-themes/sifr_svg/cmd/lc_incrementindent.svg

<svg viewBox="0 0 24 24" xmlns="http://www.w3.org/2000/svg"><path d="m2 3v2h20v-2zm0 4v1c0 .4557421.3378986.6607562.6835938 1l3.3164062 3-3.3164062 3c-.3857982.330518-.6835938.515682-.6835938 1v1h.4121094.5878906c.30945 0 .55232-.0903.75-.28125l4.25-3.882812v-1.615235l-4.25-3.939453c-.19768-.19095-.395782-.28125-.75-.28125h-.5878906zm8 1v2h12v-2zm0 6v2h12v-2zm-8 5v2h20v-2z" fill="#555753"/></svg>

<svg xmlns="http://www.w3.org/2000/svg" viewBox="0 0 24 24">
  <path
     style="fill:#555753"
     d="M 2 3 L 2 5 L 22 5 L 22 3 L 2 3 z M 2 7 L 2 8 C 2 8.4557421 2.3378986 8.6607562 2.6835938 9 L 6 12 L 2.6835938 15 C 2.2977956 15.330518 2 15.515682 2 16 L 2 17 L 2.4121094 17 L 3 17 C 3.30945 17 3.55232 16.9097 3.75 16.71875 L 8 12.835938 L 8 11.220703 L 3.75 7.28125 C 3.55232 7.0903 3.354218 7 3 7 L 2.4121094 7 L 2 7 z M 10 8 L 10 10 L 22 10 L 22 8 L 10 8 z M 10 14 L 10 16 L 22 16 L 22 14 L 10 14 z M 2 19 L 2 21 L 22 21 L 22 19 L 2 19 z "
     />
</svg>
